X: 1
T: The Red-Haired Lass
R: reel
Z: From Josephine Marsh at Kilfenora 1996. Transcribed by Z:Thom Pratt
S: Nick Howard <nick@nickthefiddle.fsnet.co.uk> tradtunes 2003-1-19
M: 4/4
K: G
|: "G"DGGF ~G2 BG | GABG "C"~AGEG | "G"DGGF GABd |1 "C"egdB "D7"AGEG :|2 "C"egdB "D7"~c2 ||
Bc | "G"~d2 gd edgd | ~d2gd BGBc | ~d2 gd "C"edef | "G"gedB "D7"~c2 ||
Bc | "G"~d2 gd edgd | ~d2gd BGBd | "C"~c2 cA "G"~B2 BA | "G"GA (3Bcd "C"ge"D7"dB |]
